!!!COM: Henri Duparc
!!!CNT: Francais
!!!TXO: Francais
!!!OTL: La Vie Ante/rieure
!!!LYR: Charles Baudelaire
!!!ENC: Jacob Pegg
!!!YOR: Henri Duparc: Complete Songs for Voice and Piano
!!!YOR: New York: Dover publications, inc., 1995 
!!!YOR: ISBN 0-486-*28466-2
!!!ODT: 1884/
!!NB: Vocal melody and text only encoded.
**kern	**silbe
*clef G2	*
*k[b-e-a-]	*
*M4/4	*
*MM[lento]	*
!!created: 6/23/03 20:20
!!proofed and posted: 7/21/03 9:31
=1	=1
1r	.
=2	=2
2r	.
{4.b-	{J'ai
8b-	long-
=3	=3
4ee-	-temps
8dd	ha-
8cc	-bi-
4b-	-te/
8f	sous
8a-	de
=4	=4
4g	vas-
8f	-tes
8e-	por-
2b-	-ti-
=5	=5
8b-}	-ques}
8r	.
{4b-	{Que
8dd-	les
8dd-	so-
8cc-	-leils
8cc-	ma-
=6	=6
8b-	-rins
8e-	tei-
4.g	-gnaient
8g	de
8f	mil-
8e-	-le
=7	=7
2e-}	feux,}
4r	.
{4b-	{Et
=8	=8
4b-	que
4ee-	leurs
4dd-	grands
4cc-	pi-
=9	=9
4b-	-liers,
2g	droits
8f	et
8B-	ma-
=10	=10
8e-	-jes-
8g	-tu-
2b-}	-eux,}
{4b-	{Ren-
=11	=11
8b-	-daient
8b-	pa-
2b-	-reils,
4b-	le
=12	=12
2.ee-	soir,
4a-	aux
=13	=13
(6g	grot-
12g)	-tes
(12g	ba-
12f	|
12e-)	-sal-
2f	-ti-
=14	=14
4e-}	-ques.}
4r	.
4r	.
8r	.
{8e-	{Les
=15	=15
4g-	hou-
8g-}	-les,}
8r	.
{4f	{en
4e-	rou-
=16	=16
4cc-	-lant
8a-	les
8g-	i-
4f-	-ma-
8g-	-ges
8a-	des
=17	=17
[2b-	cieux,
4b-]}	|}
4r	.
=18	=18
8r	.
{8b-	{Me^-
4.b-	-laient
8b-	d'u-
8b-	-ne
8b-	fa-
=19	=19
4b-	-c5on
8cc	so-
8dd	-len-
4ee-	-nelle
8dd	et
8cc	mys-
=20	=20
2dd	-ti-
8dd}	-que}
8r	.
{4dd	{Les
=21	=21
8ee-	tout
8ee-	puis-
2ee-	-sants
4ee-	ac-
=22	=22
2gg	-cords
4ff	de
4ee-	leur
=23	=23
2aa-	ri-
4e-	-che
4cc	mu-
=24	=24
2b-	-si-
8b-}	-que}
8r	.
{8b-	{Aux
8b-	cou-
=25	=25
2ee-	-leurs
4dd-	du
4cc-	cou-
=26	=26
2.b-	-chant
8b-	re-
8b-	-fle/-
=27	=27
2cc	-te/
4b-	par
4an	mes
=28	=28
[1dd	yeux...
=29	=29
4dd]}	|}
4r	.
2r	.
=30	=30
1r	.
=31	=31
2r	.
2r	.
=32	=32
2r	.
4r;	.
{4dd	{C'est
=33	=33
*k[]	*
2.ee	la\,
4ee	c'est
=34	=34
4.gg	la\
8dd	que
4dd	j'ai
4ee	ve/-
=35	=35
2.ff	-cu
4cc	dans
=36	=36
4dd	les
4ee	vo-
4cc	-lup-
4a	-te/s
=37	=37
2g	cal-
8g}	-mes}
8r	.
4r	.
=38	=38
*M2/4	*
12r	.
{12cc	{Au
12cc	mi-
(12cc	-lieu
12cc	de
12cc)	l'a-
=39	=39
*M4/4	*
4cc}	-zur,}
8r	.
{8cc	{des
8cc	va-
8cc}	-gues,}
12r	.
{(12cc	{des
12cc)	splen-
=40	=40
2cc#}	-deurs,}
12r	.
{(12dd	{Et
12dd)	des
(12dd	es-
12dd	-cla-
12dd)	-ves
=41	=41
(12dd	nus
12dd	tout
12dd)	im-
(12dd	-pre/-
12dd	-gne/s
12dd)	d'o-
2ee-}	-deurs}
=42	=42
8r	.
{8cc	{Qui
8cc	me
8cc	ra-
8dd-	-frai^-
8dd-	-chis-
8dd-	-saient
8dd-	le
=43	=43
8cc	front
8cc	a-
8b-	-vec
8b-	des
4cc	pal-
8cc}	-mes,}
8r	.
=44	=44
4r	.
{4a-	{Et
8a-	dont
8a-	l'u-
8a-	-ni-
8a-	-que
=45	=45
*M2/4	*
8.an	soin
16an	e/-
[4an	-tait
=46	=46
*M4/4	*
4an]	|
4an	d'ap-
4an	-pro-
4an	-fon-
=47	=47
*k[b-e-a-d-g-c-]	*
2.b-}	-dir}
{8b-	{Le
8b-	se-
=48	=48
2a-	-cret
4cc-	dou-
4cc-	-lou-
=49	=49
[2ee-	-reux
8ee-]}	|}
8r	.
{4e-	{qui
=50	=50
4e-	me
4e-	fai-
4e-	-sait
4e-	lan-
=51	=51
2e-}	-guir.}
2r	.
*-	*-
